X:1
T:Title
%%score [ 1 2 ] 3
L:1/8
Q:1/4=120
M:6/4
K:C
V:1 treble nm="MusicXML Part"
V:2 treble nm="MusicXML Part"
V:3 bass nm="MusicXML Part"
V:1
"^Ritornello" z2 g2 e2 c2 e2 c2 | G4 g2 g6- | g8 g2 e2 | c2 e2 c2 c4 B2 | c8 |] %5
w: |||||
[K:G]"^POPPEA""^Adagio" z12 | z12 | z2 z2 Bc d2 A2 z2 | z2 z2 Bc dc/B/ A2 z2 | z2 z2 Bc A6- | %10
w: ||Pur ti mi- ro,|pur ti mi- ro, _ _|pur ti strin-|
 A4 G2- A4 dc | B2 G2 z2 z2 z2 DD | EF GE FG FG AF GA | G2 G2 BB B6- | B2 c2 d2 c4- B2 | %15
w: * go _ pur ti|strin- go Pur t'an-|no- * * * * * * * * * * *|* do, Più non pe-|* no, non pe- *|
 B2 B2 B2 B6- | B4 AG F4- G2 | G4 Bc d2 A2 z2 | z2 z B ^cd d4 c2- | d2 dc BA B2 B2 z2 | %20
w: no, più non mo-|* ro, non mo- *|ro, O mia vi- ta,|o mio te- so- ro,|_ o _ mia _ vi- ta|
 z2 ed cB B2 A3 A- | G12 || z12"^Presto" | z2 d2 c2 B2 z2 z2 | z2 c2 B2 A2 z2 z2 | %25
w: o mio te- so- * * ro|_||Io son tua|Spe- me mia|
 z2 c2 d2 e2 z2 z2 | z2 A2 G2 F2 z2 z2 | z2 e2 B2 c2 z2 z2 | z2 d2 c2 B2 z2 z2 | %29
w: dil- lo, dì|spe- me mia|dil- lo, dì|L'i- dol mio,|
 z2 c2 B2 A2 z2 z2 | z2 c2 G2 A2 z2 z2 | e2 d2 e2 ^c2 B2 c2 | d2 z2 z2 z2 G2 D2 | %33
w: Tu sei pur|Sì, mio ben,|mia vi- ta, sì sì sì|sì Sì, mio|
 E2 z2 z2 F2 E2 F2 | G2 A4 B2 ^c4 | d4 z2 z2 d2 c2 | B2 B2 A2 G4 B2 | B2 A2 B2 G4 z2 | %38
w: cor, mia vi- ta,|sì sì sì sì|sì sì, mio|ben, sì, mio cor, mia|vi- ta _ sì.|
 z2 d2 c2 B2 z2 z2 | z2 c2 B2 A2 z2 z2 | z2 c2 d2 e2 z2 z2 | z2 A2 G2 F2 z2 z2 | %42
w: Io son tua|spe- me mia|dil- lo, dì|spe- me mia|
 z2 e2 B2 ^c2 z2 z2 | z2 d2 c2 B2 z2 z2 | z2 c2 B2 A2 z2 z2 | z2 c2 G2 A2 z2 z2 | %46
w: dil- lo, dì|l'i- dol mio,|tu sei pur,|sì, mio ben,|
 e2 d2 e2 ^c2 B2 c2 | d2 z2 z2 z2 G2 D2 | E2 z2 z2 F2 E2 F2 | G2 A4 B2 ^c4 | d4 z2 z2 d2 c2 | %51
w: mia vi- ta, sì sì sì|sì sì, mio|cor mia vi- ta,|sì sì sì sì|sì sì, mio|
 B2 B2 A2 G4 B2 |[M:3/4] B2 A2 B2 |[M:6/4] G4"^Adagio" Bc d2 A2 z2 | z2 z2 Bc dc/B/ A2 z2 | %55
w: ben, sì, mio cor, mia|vi- ta, _|sì. Pur ti mi- ro,|pur ti mi- ro, _ _|
 z2 z2 Bc A6- | TA4 G2- A4 dc | B2 G2 z2 z2 z2 DD | EF GE FG FG AF GA | G2 G2 BB B6- | %60
w: pur ti strin-|* go _ pur ti|strin- go pur t'an-|no- * * * * * * * * * * *|* do, più non pe-|
 B2 c2 d2 c4- B2 | B2 B2 B2 B6- | B4 AG F4 G2 | G4 Bc d2 A2 z2 | z2 z B ^cd d4 c2 | %65
w: * no, non pe- *|no, più non mo-|* ro, non mo- *|ro, o mia vi- ta,|o mio te- so- ro,|
 d2 dc BA B2 B2 z2 |[M:4/4] z4 edcB | B2 A4 A2 | !fermata!G16 |] %69
w: _ o _ mia _ vi- ta|o _ mio te-|so- * ro|.|
V:2
 z2 z2 z2 z2 g2 e2 | c4 e2 e6- | e8 e2 c2 | G2 g2 e2 d6 | e8 |][K:G]"^NERONE" z12 | z12 | %7
w: |||||||
 z2 z2 z2 z2 z2 AB | c2 G2 z2 z2 z2 GA | BB/A/ G2 z2 z2 z2 DD | EF GE FG FG AF GA | G2 G2 Bc A6- | %12
w: Pur ti|go- do, pur ti|go- do, _ _ pur t'an-|no- * * * * * * * * * * *|* do, pur- ti strin-|
 A4 G2- A4 dc | B2 G2 z2 z2 G2 G2 | G8 F2 G2 | G2 z2 z2 z2 c2 c2 | c8- c2 B2 | B4 z2 z2 z2 GA | %18
w: * go _ pur ti|strin- go più non|mo- * *|ro più non|pe- * *|no, O mia|
 B2 GA GF TE4 E2- | D4 z2 z2 G=F ED | E2 EE FG G4 F2- | G12 || z12 | z2 z2 z2 z2 G2 =F2 | %24
w: vi- ta, o mio te- so- ro|_ o _ mia _|vi- ta o mio te- so- ro|_||Tuo son|
 E2 z2 z2 z2 d2 c2 | B2 z2 z2 z2 e2 B2 | ^c2 z2 z2 z2 B2 A2 | ^G2 z2 z2 z2 A2 =G2 | %28
w: io dil- lo,|dì tu sei|pur L'i- dol|mio tu sei|
 F2 z2 z2 z2 G2 =F2 | E2 z2 z2 z2 d2 c2 | B2 z2 z2 z2 d2 A2 | B2 z2 z2 A2 G2 A2 | %32
w: pur dil- lo,|dì l'i- dol|mio sì, mio|cor mia vi- ta|
 F2 B2 A2 B2 z2 z2 | c2 B2 c2 A2 B2 A2 | G2 z2 z2 G2 A4 | F4 z2 z2 B2 A2 | G2 G2 F2 E4 G2 | %37
w: sì sì mio ben|mia vi- ta sì sì sì|sì sì sì|sì sì mio|ben sì mio cor mia|
 G2 F2 G2 G4 z2 | z2 z2 z2 z2 G2 =F2 | E2 z2 z2 z2 d2 c2 | B2 z2 z2 z2 e2 B2 | ^c2 z2 z2 z2 B2 A2 | %42
w: vi- ta _ sì|Tuo son|io dil- lo,|dì, tu sei|pur l'i- dol|
 ^G2 z2 z2 z2 A2 =G2 | F2 z2 z2 z2 G2 =F2 | E2 z2 z2 z2 d2 c2 | B2 z2 z2 z2 d2 A2 | %46
w: mio tu sei|pur dil- lo,|dì l'i- dol|mio sì, mio|
 B2 z2 z2 A2 G2 A2 | F2 B2 A2 B2 z2 z2 | c2 B2 c2 A2 B2 A2 | G2 z2 z2 G2 A4 | F4 z2 z2 B2 A2 | %51
w: cor mia vi- ta,|sì, sì mio ben|mia vi- ta, sì sì sì|sì sì sì|sì sì, mio|
 G2 G2 F2 E4 G2 |[M:3/4] G2 F2 G2 |[M:6/4] G6 z2 z2 AB | c2 G2 z2 z2 z2 GA | BB/A/ G2 z2 z2 z2 DD | %56
w: ben, sì mio cor, mia|vi- ta _|sì. Pur ti|go- do pur ti|go- do, _ _ pur t'an-|
 EF GE FG FG AF GA | G2 G2 Bc A6- | A4 G2- A4 dc | B2 G2 z2 z2 G2 G2 | G6- G2 F2 G2 | %61
w: no- * * * * * * * * * * *|* do, pur ti strin-|* go _ pur ti|strin- go più non|mo- * * *|
 G2 z2 z2 z2 c2 c2 | c6- c4 B2 | B4 z2 z2 z2 GA | B2 GA GF E4 E2- | D4 z2 z2 G=F ED | %66
w: ro più non|pe- * *|no, o mia|vi- ta, o mio te- so- ro|_ o _ mia _|
[M:4/4] E4 EEFG | G6 F2 | !fermata!G16 |] %69
w: vi- ta, o mio te-|so- ro|.|
V:3
 C,6 C,2 C2 G,2 | E,2 G,2 E,2 C,2 C,2 G,,2 | E,,2 G,,2 E,,2 C,,6 | E,,4 F,,2 G,,6 | C,8 |] %5
[K:G] G,6 F,6 | E,6 D,6 | G,6 F,6 | E,6 D,6 | G,6 F,6 | E,6 D,6 | G,6 F,6 | E,6 D,6 | G,6 F,6 | %14
 E,6 D,6 | G,6 F,6 | E,6 D,6 | G,6 F,6 | G,6 A,6 | D,6 G,6 | C,6 D,6 | G,6 F,6 || E,6 D,6 | %23
 G,,2 G,2 A,2 B,6 | C4 C,2 D,6 | G,6 ^G,6 | A,6 B,2 B,,4 | E,6 A,,6 | D,6 G,,6 | C,6 D,6 | %30
 G,2 D,4 =F,6 | G,6 A,4 A,,2 | D,6 G,2 B,,4 | C,6 D,6 | G,,2 F,,4 E,,6 | D,6 z2 B,,4 | %36
 E,2 B,,4 C,4 G,,2 | D,2 D,,4 G,,4 z2 | z2 G,2 A,2 B,6 | C4 C,2 D,6 | G,6 ^G,6 | A,6 B,2 B,,4 | %42
 E,6 A,,6 | D,6 G,,6 | C,6 D,6 | G,2 D,4 =F,6 | G,6 A,4 A,,2 | D,6 G,2 B,,4 | C,6 D,6 | %49
 G,,2 F,,4 E,,6 | D,4 z2 z2 B,,4 | E,2 B,,4 C,4 G,,2 |[M:3/4] D,6 |[M:6/4] G,6 F,6 | E,6 D,6 | %55
 G,6 F,6 | E,6 D,6 | G,6 F,6 | E,6 D,6 | G,6 F,6 | E,6 D,6 | G,6 F,6 | E,6 D,6 | G,6 F,6 | %64
 G,6 A,6 | D,6 G,6 |[M:4/4] C,8 | D,8 | !fermata!G,,16 |] %69

